symbols/web/settings_cell/materialsymbolsrounded/settings_cell_wght700fill1_40px.svg

<svg xmlns="http://www.w3.org/2000/svg" height="40" width="40"><path d="M13.833 33.833q-1.791 0-3.062-1.271Q9.5 31.292 9.5 29.5V3.833q0-1.791 1.271-3.062T13.833-.5h12.334q1.791 0 3.062 1.271T30.5 3.833V29.5q0 1.792-1.271 3.062-1.271 1.271-3.062 1.271Zm0-9.333h12.334V8.833H13.833ZM12.542 40q-.792 0-1.313-.521-.521-.521-.521-1.271 0-.75.542-1.312.542-.563 1.292-.563t1.27.563q.521.562.521 1.312t-.521 1.271q-.52.521-1.27.521Zm7.5 0q-.792 0-1.313-.521-.521-.521-.521-1.312 0-.75.542-1.292t1.292-.542q.791 0 1.291.542.5.542.5 1.333 0 .75-.521 1.271-.52.521-1.27.521Zm7.5 0q-.792 0-1.292-.521t-.5-1.271q0-.75.521-1.312.521-.563 1.271-.563.791 0 1.291.563.5.562.5 1.312t-.521 1.271q-.52.521-1.27.521Z"/></svg>

<svg xmlns="http://www.w3.org/2000/svg" height="40" width="40"><path d="M13.833 33.833Q12.042 33.833 10.771 32.562Q9.5 31.292 9.5 29.5V3.833Q9.5 2.042 10.771 0.771Q12.042 -0.5 13.833 -0.5H26.167Q27.958 -0.5 29.229 0.771Q30.5 2.042 30.5 3.833V29.5Q30.5 31.292 29.229 32.562Q27.958 33.833 26.167 33.833ZM13.833 24.5H26.167V8.833H13.833ZM12.542 40Q11.75 40 11.229 39.479Q10.708 38.958 10.708 38.208Q10.708 37.458 11.25 36.896Q11.792 36.333 12.542 36.333Q13.292 36.333 13.812 36.896Q14.333 37.458 14.333 38.208Q14.333 38.958 13.812 39.479Q13.292 40 12.542 40ZM20.042 40Q19.25 40 18.729 39.479Q18.208 38.958 18.208 38.167Q18.208 37.417 18.75 36.875Q19.292 36.333 20.042 36.333Q20.833 36.333 21.333 36.875Q21.833 37.417 21.833 38.208Q21.833 38.958 21.312 39.479Q20.792 40 20.042 40ZM27.542 40Q26.75 40 26.25 39.479Q25.75 38.958 25.75 38.208Q25.75 37.458 26.271 36.896Q26.792 36.333 27.542 36.333Q28.333 36.333 28.833 36.896Q29.333 37.458 29.333 38.208Q29.333 38.958 28.812 39.479Q28.292 40 27.542 40Z"/></svg>
